X:402
T:Easter Hymn
M:4/4
L:1/8
K:D
"D"D2 F2 A2 F2|"G"G2 B2 B2 A2|"D"FGAD "G"G2FG|"A"F2 E2 "D"D4|\
"G"G2 A2 B2 A2|"Em"G2 F2 F2 D2|"D"FGAD "G"G2FG|"A"F2 E2 "D"D4|
"A"c2 d2 e2 A2|"D"d2 e2 f4|"A"cdeA "D"d2cd|"E7"c2 B2 "A"A4|\
"A"ABcA "D"d2 F2|"G"G2 B2 B2 A2|"D"dcdA "A"Bcde|"D"d2"A"c2 "D"d4||
